X:11
T:Wragg’s Duetto the 38th Rondo. 2voices. RH.012
R:jig
S:Rev.R.Harrison’s MS,c1815,Cumbria
O:England
A:Temple Sowerby,Cumbria
Z:vmp.Simon Wilson. Review PJH, 2008.
M:6/8
L:1/8
Q:3/8=110
K:C
[V:1]|:G|c2c cec|d2d dfd|e2fg2a|
[V:2]|:z|FGc FGc|G2GG2z|c2de2f|
%
[V:1] g2fe2d|c2c cec|d2d dfd|egc f2e|d2Bc2:|
[V:2] e2dc2G|FGc FGc|G2GG2z|c2Gd2c|G2GF2:|
%
[V:1]|:e/f/|g2g geg|f2f fdf|e2e ece|
[V:2]|:e/f/|g6-|g6-|g6|
%
[V:1] d2BG2e/f/|g2g geg|f2f fdf|e2ag2^f|g3- ” DC”g2:|
[V:2] GBdG2c/d/|ece ece|dBd dBd|c2cB2A|B3″ DC”B2:|

